assets/instagram-icon.svg

<svg width="15" height="15" viewBox="0 0 15 15" fill="none" xmlns="http://www.w3.org/2000/svg">
<path d="M7.50167 3.65337C5.3734 3.65337 3.65672 5.37005 3.65672 7.49833C3.65672 9.6266 5.3734 11.3433 7.50167 11.3433C9.62995 11.3433 11.3466 9.6266 11.3466 7.49833C11.3466 5.37005 9.62995 3.65337 7.50167 3.65337ZM7.50167 9.99805C6.12633 9.99805 5.00195 8.87702 5.00195 7.49833C5.00195 6.11963 6.12298 4.99861 7.50167 4.99861C8.88037 4.99861 10.0014 6.11963 10.0014 7.49833C10.0014 8.87702 8.87702 9.99805 7.50167 9.99805ZM12.4007 3.4961C12.4007 3.9947 11.9992 4.39292 11.5039 4.39292C11.0053 4.39292 10.6071 3.99136 10.6071 3.4961C10.6071 3.00084 11.0086 2.59927 11.5039 2.59927C11.9992 2.59927 12.4007 3.00084 12.4007 3.4961ZM14.9473 4.4063C14.8904 3.20496 14.616 2.14083 13.7359 1.26408C12.8592 0.38734 11.795 0.112939 10.5937 0.052705C9.35555 -0.0175683 5.64445 -0.0175683 4.4063 0.052705C3.20831 0.109593 2.14417 0.383993 1.26408 1.26074C0.383993 2.13748 0.112939 3.20162 0.052705 4.40296C-0.0175683 5.6411 -0.0175683 9.3522 0.052705 10.5904C0.109593 11.7917 0.383993 12.8558 1.26408 13.7326C2.14417 14.6093 3.20496 14.8837 4.4063 14.9439C5.64445 15.0142 9.35555 15.0142 10.5937 14.9439C11.795 14.8871 12.8592 14.6127 13.7359 13.7326C14.6127 12.8558 14.8871 11.7917 14.9473 10.5904C15.0176 9.3522 15.0176 5.64445 14.9473 4.4063ZM13.3477 11.9189C13.0867 12.5747 12.5814 13.08 11.9222 13.3444C10.935 13.7359 8.59258 13.6456 7.50167 13.6456C6.41076 13.6456 4.06497 13.7326 3.08115 13.3444C2.42526 13.0834 1.91997 12.5781 1.65561 11.9189C1.26408 10.9317 1.35443 8.58924 1.35443 7.49833C1.35443 6.40742 1.26743 4.06163 1.65561 3.0778C1.91662 2.42192 2.42192 1.91662 3.08115 1.65226C4.06832 1.26074 6.41076 1.35109 7.50167 1.35109C8.59258 1.35109 10.9384 1.26408 11.9222 1.65226C12.5781 1.91327 13.0834 2.41857 13.3477 3.0778C13.7393 4.06498 13.6489 6.40742 13.6489 7.49833C13.6489 8.58924 13.7393 10.935 13.3477 11.9189Z" fill="white"/>
</svg>

<svg width="15" height="15" fill="none" xmlns="http://www.w3.org/2000/svg"><path d="M7.502 3.653a3.839 3.839 0 0 0-3.845 3.845 3.839 3.839 0 0 0 3.845 3.845 3.839 3.839 0 0 0 3.845-3.845 3.839 3.839 0 0 0-3.845-3.845zm0 6.345a2.504 2.504 0 0 1-2.5-2.5c0-1.378 1.121-2.5 2.5-2.5 1.378 0 2.5 1.122 2.5 2.5 0 1.379-1.125 2.5-2.5 2.5zM12.4 3.496a.895.895 0 0 1-.897.897.897.897 0 1 1 .897-.897zm2.546.91c-.057-1.201-.331-2.265-1.211-3.142C12.859.387 11.795.113 10.594.053c-1.238-.07-4.95-.07-6.188 0C3.208.11 2.144.384 1.264 1.26.384 2.137.113 3.2.053 4.403c-.07 1.238-.07 4.95 0 6.187.057 1.202.331 2.266 1.211 3.143.88.876 1.941 1.15 3.142 1.21 1.238.071 4.95.071 6.188 0 1.201-.056 2.265-.33 3.142-1.21.877-.877 1.151-1.941 1.211-3.143.07-1.238.07-4.946 0-6.184zm-1.6 7.513a2.531 2.531 0 0 1-1.425 1.425c-.987.392-3.33.302-4.42.302-1.091 0-3.437.087-4.42-.302a2.53 2.53 0 0 1-1.426-1.425c-.392-.987-.302-3.33-.302-4.42 0-1.092-.087-3.437.302-4.421A2.53 2.53 0 0 1 3.08 1.652c.987-.391 3.33-.3 4.42-.3 1.092 0 3.437-.088 4.421.3a2.53 2.53 0 0 1 1.426 1.426c.391.987.3 3.33.3 4.42 0 1.091.091 3.437-.3 4.42z" fill="#fff"/></svg>
